packages/elvis-assets-icons/icons/svg/src/zoom_in.svg

<svg width="24" height="24" viewBox="0 0 24 24" fill="none" xmlns="http://www.w3.org/2000/svg">
<g clip-path="url(#clip0)">
<path fill-rule="evenodd" clip-rule="evenodd" d="M9.81294 1.49902C8.16871 1.49884 6.56135 1.98626 5.19414 2.89963C3.82694 3.81301 2.7613 5.11131 2.13199 6.63035C1.50269 8.14939 1.33799 9.82094 1.65872 11.4336C1.97944 13.0462 2.7712 14.5276 3.93385 15.6902C5.0965 16.8529 6.57782 17.6446 8.19047 17.9653C9.80312 18.2861 11.4747 18.1214 12.9937 17.4921C14.5127 16.8628 15.811 15.7971 16.7244 14.4299C17.6378 13.0627 18.1252 11.4553 18.125 9.81111C18.1248 7.60668 17.249 5.49261 15.6902 3.93384C14.1314 2.37508 12.0174 1.49927 9.81294 1.49902ZM4.36089 1.65236C5.9748 0.574177 7.87219 -0.00119066 9.81311 -0.000976503C12.4153 -0.000689387 14.9108 1.03316 16.7509 2.87318C18.5909 4.71321 19.6247 7.20875 19.625 9.81094C19.6252 11.7519 19.0499 13.6493 17.9717 15.2632C16.8935 16.8771 15.3609 18.135 13.5678 18.8778C11.7747 19.6207 9.80151 19.8151 7.89787 19.4365C5.99424 19.0579 4.24563 18.1233 2.87319 16.7509C1.50075 15.3784 0.566131 13.6298 0.187529 11.7262C-0.191073 9.82254 0.00334823 7.84939 0.746205 6.05625C1.48906 4.26311 2.74699 2.73055 4.36089 1.65236Z" fill="black"/>
<path fill-rule="evenodd" clip-rule="evenodd" d="M4.5 9.74902C4.5 9.33481 4.83579 8.99902 5.25 8.99902H14.25C14.6642 8.99902 15 9.33481 15 9.74902C15 10.1632 14.6642 10.499 14.25 10.499H5.25C4.83579 10.499 4.5 10.1632 4.5 9.74902Z" fill="black"/>
<path fill-rule="evenodd" clip-rule="evenodd" d="M9.75 4.49902C10.1642 4.49902 10.5 4.83481 10.5 5.24902V14.249C10.5 14.6632 10.1642 14.999 9.75 14.999C9.33579 14.999 9 14.6632 9 14.249V5.24902C9 4.83481 9.33579 4.49902 9.75 4.49902Z" fill="black"/>
<path fill-rule="evenodd" clip-rule="evenodd" d="M15.6907 15.6886C15.9836 15.3958 16.4585 15.3958 16.7514 15.6887L23.7804 22.7187C24.0732 23.0116 24.0732 23.4865 23.7803 23.7794C23.4874 24.0722 23.0125 24.0722 22.7196 23.7793L15.6906 16.7493C15.3978 16.4564 15.3978 15.9815 15.6907 15.6886Z" fill="black"/>
</g>
<defs>
<clipPath id="clip0">
<rect width="24" height="24" fill="white"/>
</clipPath>
</defs>
</svg>

<svg width="24" height="24" fill="none" xmlns="http://www.w3.org/2000/svg"><g clip-path="url(#clip0)" fill-rule="evenodd" clip-rule="evenodd" fill="#000"><path d="M9.813 1.499a8.313 8.313 0 10-.002 16.626A8.313 8.313 0 009.813 1.5zm-5.452.153a9.813 9.813 0 1110.902 16.32A9.813 9.813 0 014.361 1.652z"/><path d="M4.5 9.749a.75.75 0 01.75-.75h9a.75.75 0 010 1.5h-9a.75.75 0 01-.75-.75z"/><path d="M9.75 4.499a.75.75 0 01.75.75v9a.75.75 0 01-1.5 0v-9a.75.75 0 01.75-.75zM15.69 15.689a.75.75 0 011.061 0l7.03 7.03a.75.75 0 01-1.061 1.06l-7.03-7.03a.75.75 0 010-1.06z"/></g><defs><clipPath id="clip0"><path fill="#fff" d="M0 0h24v24H0z"/></clipPath></defs></svg>
